X:1
T:The Easy Winners
T:A Ragtime Two Step
T:Scott Joplin
T:Public Domain - edited by FdS
T:Public Domain - edited by FdS
T:Public Domain - edited by FdS
T:Public Domain - edited by FdS
Z:Public Domain - edited by FdS
%%score { ( 1 3 ) | ( 2 4 ) }
L:1/8
M:2/4
K:Ab
V:1 treble nm="Piano"
V:3 treble 
V:2 bass 
V:4 bass 
V:1
 Ec- c/B/A/G/ | F/ED/ CB,/A,/ | (G,/A,/B,/C/ D/E/F/G/ | A) z z2 |: [Ac] [Ac]2 [ce] | %5
 ([=Bf]/[ce])([Bf]/ [ce]/)([Bf]/[ce]) | ([=eb]/[fa])([eb]/ [fa]/)([eb]/[fa]/)[c_e]/- | [ce]4 | %8
 [Ac] [Ac]2 [ce] | ([=Bf]/[ce])([Bf]/ [ce]/)[ce]/[ce] | e/Be/ =d/e/f | [Ge]2- [Ge]/E/G/d/ | %12
 [Ac] [Ac]2 [ce] | ([=Bf]/[ce])([Bf]/ [ce]/)([Bf]/[ce]) | %14
 ([=eb]/[fa])([eb]/ [fa]/)[fa]/[fgb]/[egc']/- | ([egc']2 c')g/a/ | %16
 ([=eb]/[fa])([eb]/ [fa]/)([eb]/[fa]/)[c_e]/- | [ce]/[df]/[ce]/[Bd]/ [Ac]/[ce][ce]/ | %18
 ([=Ae]/[Bd])([Ae]/ [Bd]/)[DGc]/[DGB] |1 [CA]2- [CA] z :|2 [CA]2 [Acea]E/=E/ |: %21
 F/^F/G/[GB]/- [GB]/e/d/B/ | F/^F/G/[Gc]/- [Gc]/B/=F/G/ | A/E/F/G/ A/=A/B/=B/ | %24
 c/=B/c/[cf]/- [cf]/e/_B/c/ | d/bc/ d/bc/ | d/ba/ g/f/e/d/ | c/a=B/ c/aB/ | c/af/ e/c/B/A/ | %29
 G/^G/=A/[Af]/- [Af]/e/c/A/ | G/^G/=A/[Af]/- [Af]/[ce]/[Af]/[ce]/ | [Bd]/[=Ac]/[Bd]/F/- F/A/B/d/ | %32
 f/c/d/B/- B/F/D/B,/ | =B,/=D/F/A/ =B/BB/- | B/=d/f/a/ =b z | c'/a/e/c/ c/A/C/E/ |1 %36
 [DEGB]/[DEGB][CEA]/- [CEA]E/=E/ :|2 [DEGB]/[DEGB][CEA]/- [CEA]E || [Ac] [Ac]2 [ce] | %39
 ([=Bf]/[ce])([Bf]/ [ce]/)([Bf]/[ce]) | ([=eb]/[fa])([eb]/ [fa]/)([eb]/[fa]/)[c_e]/- | [ce]4 | %42
 [Ac] [Ac]2 [ce] | ([=Bf]/[ce])([Bf]/ [ce]/)[ce]/[ce] | e/Be/ =d/e/f | [Ge]2- [Ge]/E/G/d/ | %46
 [Ac] [Ac]2 [ce] | ([=Bf]/[ce])([Bf]/ [ce]/)([Bf]/[ce]) | %48
 ([=eb]/[fa])([eb]/ [fa]/)[fa]/[fgb]/[egc']/- | ([egc']2 c')g/a/ | %50
 ([=eb]/[fa])([eb]/ [fa]/)([eb]/[fa]/)[c_e]/- | [ce]/[df]/[ce]/[Bd]/ [Ac]/[ce][ce]/ | %52
 [=Ae]/[Bd][Ae]/ [Bd]/[DGc]/[DGB] | [CA]2 [Acea] z ||[K:Db] dd- d/A/d/e/ | ff- f/A/d/f/ | %56
 [A-cga]/[A-egc'][Ac-g-b-]/ [cgb]/[cga]/[GAc] | [FAd] z2 A/=A/ |: B/ge/ =A/ge/ | %59
 A/d/f/b/- b/a/f/d/ | c/a/e/c/ B/cA/ | d/d/f/a/ d'/b/a/f/ | B/ge/ =A/ge/ | A/d/f/b/- b/a/f/d/ | %64
 e/f/e/d/ c/dB/ | A[=Bf]/[ce]/ [ca][AB] | B/ge/ =A/ge/ | z/ A/d/f/ b/a/f/d/ | c/a/e/c/ B/cA/ | %69
 z/ d/f/a/ d'/b/a/f/ | B/ge/ =A/ge/ | z/ A/d/f/ b/a/f/A/ |1 =G<[Bd] _G/[ce][Fd]/- | %73
 [Fd]f/d/ e/f/A/=A/ :|2 =G<[Bd] _G/[ce][Fd]/- | [Fd]2- [Fd]/[Aa]/[Bb]/[=B=b]/ |: %76
 [cgc'][Aa]/[Bgb]/- [Bgb]2 | [cgc'][Aa]/[Bgb]/- [Bgb]/[Aa]/[Bb]/[cc']/ | %78
 [dfd'][Afa]/[Bfb]/- [Bfb]2 | [dfd'][Afa]/[Bfb]/- [Bfb]2 | z b/[cga]/- [cga]2 | %81
 z b/[cga]/- [cga]2 | z b/[dfa]/- [dfa]2 | z b/[dfa]/- [dfa]/[Aa]/[Bb]/[=B=b]/ | %84
 [cgc'][Aa]/[Bgb]/- [Bgb]2 | [cgc'][Aa]/[Bgb]/- [Bgb]/[Aa]/[Bb]/[cc']/ | %86
 [dfd'][Afa]/[Bfb]/- [Bfb]2 | z/ d/f/a/ d'/b/a/f/ | B/ge/ =A/ge/ | z/ A/d/f/ b/a/f/A/ |1 %90
 =G<[Bd] _G/[ce][Fd]/- | [Fd]2- [Fd]/[Aa]/[Bb]/[=B=b]/ :|2 =G<[Bd] _G/[ce][Fd]/- | %93
 [Fd]2 [dfad'] z |] %94
V:2
 E,C- C/B,/A,/G,/ | F,/E,D,/ C,B,,/A,,/ | E,,2 E,/D,/C,/B,,/ | A,,[E,A,C] E,,[E,A,C] |: %4
 A,,[E,A,C] E,,[E,A,C] | A,,[E,A,C] E,,[E,A,C] | D,,[F,A,D] D,,[F,A,D] | A,,[E,A,C] E,,[E,A,C] | %8
 A,,[E,A,C] E,,[E,A,C] | A,,[E,A,C] =A,,[^F,=A,E] | B,,[G,B,E] B,,[B,=D] | %11
 [E,E][D,D] [C,C][B,,B,] | [A,,A,][E,A,C] E,,[E,A,C] | A,,[E,A,C] E,,[E,A,C] | %14
 D,,[F,A,D] [D,D][D,D] | [C,C][G,,G,] [C,,C,] z | [D,,D,][F,A,D] [D,,D,][F,A,D] | %17
 [A,,A,][E,A,C] [A,,A,][E,A,C] | [E,,E,][E,G,D] [E,,E,][E,,E,] |1 A,,E,, F,,G,, :|2 %20
 [A,,A,][E,,E,] [A,,,A,,] z |: [E,,E,][E,B,D] [G,,G,][E,G,D] | [B,,B,][E,G,B,D] [B,,B,][=B,,=B,] | %23
 [C,C][E,A,C] [E,,E,][E,A,C] | [A,,A,][E,A,C] [E,,E,][E,A,C] | [B,,B,][E,G,D] [E,,E,][E,G,D] | %26
 [B,,B,][E,G,D] [E,,E,][G,,G,] | [A,,A,][E,A,C] [E,,E,][E,A,C] | [A,,A,][E,A,C] [E,,E,][E,A,C] | %29
 [F,,F,][F,=A,E] [=A,,A,][F,A,E] | [C,C][F,=A,E] [F,,F,][F,A,E] | B,,[F,B,D] D,[F,B,D] | %32
 B,,[F,B,] [D,F,B,]2 | =D,/F,/A,/=B,/ =D/DD/- | D/[I:staff -1]F/A/=B/ =d[I:staff +1] z | x4 |1 %36
 [E,,E,][E,,E,] [A,,A,] z :|2 [E,,E,][E,,E,] [A,,A,] z || A,,[E,A,C] E,,[E,A,C] | %39
 A,,[E,A,C] E,,[E,A,C] | D,,[F,A,D] D,,[F,A,D] | A,,[E,A,C] E,,[E,A,C] | A,,[E,A,C] E,,[E,A,C] | %43
 A,,[E,A,C] =A,,[^F,=A,E] | B,,[G,B,E] B,,[B,=D] | [E,E][D,D] [C,C][B,,B,] | %46
 [A,,A,][E,A,C] E,,[E,A,C] | A,,[E,A,C] E,,[E,A,C] | D,,[F,A,D] [D,D][D,D] | %49
 [C,C][G,,G,] [C,,C,] z | [D,,D,][F,A,D] [D,,D,][F,A,D] | [A,,A,][E,A,C] [A,,A,][E,A,C] | %52
 [E,,E,][E,G,D] [E,,E,][E,,E,] | [A,,A,][E,,E,] [A,,,A,,] z ||[K:Db] DD- D/A,/D/E/ | %55
[I:staff -1] FF- F/A,/D/F/ |[I:staff +1] z2 [A,,A,][A,,A,] | [D,,D,][D,,D,] [E,,E,][F,,F,] |: %58
 [G,,G,][B,DG] [E,E][=E,=E] | [F,F][A,DF] [D,D][A,DF] | [A,,A,][A,CG] [E,E][=E,=E] | %61
 [F,F][D,D] [A,,A,][F,,F,] | [G,,G,][B,DG] [E,E][=E,=E] | [F,F][A,DF] [D,D][A,DF] | %64
 [B,,B,][DE=G] [E,,E,][DEG] | [A,CE]=D,/E,/ A,,[F,D] | [G,,G,][B,DG] [E,E][=E,=E] | %67
 [F,F][A,DF] [D,D][A,DF] | [A,,A,][A,CG] [E,E][=E,=E] | [F,F][D,D] [A,,A,][F,,F,] | %70
 [G,,G,][B,,B,] [E,E][G,G] | [F,F][D,D] [A,,A,][D,D] |1 [B,,B,][E,,E,] [A,,,A,,]2 | %73
 [D,,D,][D,D] [A,,A,][F,,F,] :|2 [B,,B,][E,,E,] [A,,,A,,]2 | [D,,D,]A,, D,, z |: %76
 [E,E][A,CG] [A,,A,][A,CG] | [E,,E,][A,CG] [E,,E,]/[A,,A,]/[=G,,=G,]/[_G,,_G,]/ | %78
 [F,,F,][A,DF] [D,D][A,DF] | [F,,F,][A,DF] [D,D][=D,=D] | [E,E][A,CG] [A,,A,][A,CG] | %81
 [C,C][A,CG] [A,,A,][A,CG] | [D,D][A,DF] [A,,A,][A,DF] | [D,D][A,DF] [F,F][_F,_F] | %84
 [E,E][A,CG] [A,,A,][A,CG] | [E,,E,][A,CG] [E,,E,]/[A,,A,]/[=G,,=G,]/[_G,,_G,]/ | %86
 [F,,F,][A,DF] [D,D][A,DF] | [F,F][D,D] [A,,A,][F,,F,] | [G,,G,][B,,B,] [E,E][G,G] | %89
 [F,F][D,D] [A,,A,][D,D] |1 [B,,B,][E,,E,] [A,,,A,,]2 | [D,,D,][A,,A,] [F,F][_F,_F] :|2 %92
 [B,,B,][E,,E,] [A,,,A,,]2 | [D,,D,]A,, D,, z |] %94
V:3
 x4 | x4 | x4 | x4 |: x4 | x4 | x4 | z (E/F/ G/A/B/=B/) | x4 | x4 | x/ G3/2 AA | x4 | x4 | x4 | %14
 x4 | z/ (c/=e/g/ c') z | x4 | x4 | x4 |1 x4 :|2 x4 |: x4 | x4 | x4 | x4 | x4 | x4 | x4 | x4 | x4 | %30
 x4 | x4 | x4 | x4 | x4 | [Ae] z z2 |1 x4 :|2 x4 || x4 | x4 | x4 | z (E/F/ G/A/B/=B/) | x4 | x4 | %44
 x/ G3/2 AA | x4 | x4 | x4 | x4 | z/ (c/=e/g/ c') z | x4 | x4 | x4 | x4 ||[K:Db] x4 | x4 | x4 | %57
 x4 |: x4 | x4 | x4 | x4 | x4 | x4 | x4 | x4 | B2 =A2 | x4 | x4 | x2 f_c | B2 =A2 | x4 |1 %72
 =G2 _G>F | x4 :|2 =G2 _G>F | x4 |: x4 | x4 | x4 | x4 | x4 | x4 | x4 | x4 | x4 | x4 | x4 | x2 f_c | %88
 B2 =A2 | x4 |1 =G2 _G>F | x4 :|2 =G2 _G>F | x4 |] %94
V:4
 x4 | x4 | x4 | x4 |: x4 | x4 | x4 | x4 | x4 | x4 | x4 | x4 | x4 | x4 | x4 | x4 | x4 | x4 | x4 |1 %19
 E,2- E, z :|2 x4 |: x4 | x4 | x4 | x4 | x4 | x4 | x4 | x4 | x4 | x4 | x4 | x4 | x4 | x4 | x4 |1 %36
 x4 :|2 x4 || x4 | x4 | x4 | x4 | x4 | x4 | x4 | x4 | x4 | x4 | x4 | x4 | x4 | x4 | x4 | x4 || %54
[K:Db] x4 | x4 | x4 | x4 |: x4 | x4 | x4 | x4 | x4 | x4 | x4 | x4 | x4 | x4 | x4 | x4 | x4 | x4 |1 %72
 x4 | x4 :|2 x4 | x4 |: x4 | x4 | x4 | x4 | x4 | x4 | x4 | x4 | x4 | x4 | x4 | x4 | x4 | x4 |1 x4 | %91
 x4 :|2 x4 | x4 |] %94

